Player/css/editor/img/controls.svg

<?xml version="1.0" standalone="no"?><!-- Generator: Adobe Fireworks CS6, Export SVG Extension by Aaron Beall (http://fireworks.abeall.com) . Version: 0.6.1  --><!DOCTYPE svg PUBLIC "-//W3C//DTD SVG 1.1//EN" "http://www.w3.org/Graphics/SVG/1.1/DTD/svg11.dtd"><svg id="controls.fw-Page%201" viewBox="0 0 144 32" style="background-color:#ffffff00" version="1.1"	xmlns="http://www.w3.org/2000/svg" xmlns:xlink="http://www.w3.org/1999/xlink" xml:space="preserve"	x="0px" y="0px" width="144px" height="32px">	<defs>		<defs>		    <style type="text/css"><![CDATA[		        path, rect {		            fill: rgba(231, 57, 61, 1); /* TERTIARY_COLOR */		        }		    ]]></style>		</defs>		<radialGradient id="gradient1" cx="50%" cy="50%" r="50%">			<stop stop-color="#ffffff" stop-opacity="1" offset="0%"/>			<stop stop-color="#f2f2f2" stop-opacity="0.2" offset="100%"/>		</radialGradient>		<linearGradient id="gradient2" x1="50%" y1="-7.8652%" x2="50%" y2="249.6629%">			<stop stop-color="#ffffff" stop-opacity="1" offset="0%"/>			<stop stop-color="#c8c8c8" stop-opacity="1" offset="100%"/>		</linearGradient>		<linearGradient id="gradient3" x1="50%" y1="0%" x2="50%" y2="238.75%">			<stop stop-color="#ffffff" stop-opacity="1" offset="0%"/>			<stop stop-color="#c8c8c8" stop-opacity="1" offset="100%"/>		</linearGradient>		<linearGradient id="gradient4" x1="50%" y1="0%" x2="50%" y2="100%">			<stop stop-color="#ffffff" stop-opacity="1" offset="0%"/>			<stop stop-color="#c8c8c8" stop-opacity="1" offset="100%"/>		</linearGradient>		<linearGradient id="gradient5" x1="50%" y1="-33.3333%" x2="50%" y2="152.0833%">			<stop stop-color="#ffffff" stop-opacity="1" offset="0%"/>			<stop stop-color="#c8c8c8" stop-opacity="1" offset="100%"/>		</linearGradient>		<linearGradient id="gradient6" x1="50%" y1="0%" x2="50%" y2="100%">			<stop stop-color="#ffffff" stop-opacity="1" offset="0%"/>			<stop stop-color="#c8c8c8" stop-opacity="1" offset="100%"/>		</linearGradient>		<linearGradient id="gradient7" x1="50%" y1="-33.3333%" x2="50%" y2="152.0833%">			<stop stop-color="#ffffff" stop-opacity="1" offset="0%"/>			<stop stop-color="#c8c8c8" stop-opacity="1" offset="100%"/>		</linearGradient>		<linearGradient id="gradient8" x1="50%" y1="0%" x2="50%" y2="100%">			<stop stop-color="#ffffff" stop-opacity="1" offset="0%"/>			<stop stop-color="#c8c8c8" stop-opacity="1" offset="100%"/>		</linearGradient>		<linearGradient id="gradient9" x1="50%" y1="0%" x2="50%" y2="100%">			<stop stop-color="#ffffff" stop-opacity="1" offset="0%"/>			<stop stop-color="#c8c8c8" stop-opacity="1" offset="100%"/>		</linearGradient>		<linearGradient id="gradient10" x1="50%" y1="0%" x2="50%" y2="100%">			<stop stop-color="#ffffff" stop-opacity="1" offset="0%"/>			<stop stop-color="#c8c8c8" stop-opacity="1" offset="100%"/>		</linearGradient>		<linearGradient id="gradient11" x1="50%" y1="0%" x2="50%" y2="100%">			<stop stop-color="#ffffff" stop-opacity="1" offset="0%"/>			<stop stop-color="#c8c8c8" stop-opacity="1" offset="100%"/>		</linearGradient>		<linearGradient id="gradient12" x1="50%" y1="0%" x2="50%" y2="238.75%">			<stop stop-color="#ffffff" stop-opacity="1" offset="0%"/>			<stop stop-color="#c8c8c8" stop-opacity="1" offset="100%"/>		</linearGradient>		<linearGradient id="gradient13" x1="40%" y1="-140%" x2="40%" y2="98.75%">			<stop stop-color="#ffffff" stop-opacity="1" offset="0%"/>			<stop stop-color="#c8c8c8" stop-opacity="1" offset="100%"/>		</linearGradient>		<linearGradient id="gradient14" x1="50%" y1="0%" x2="50%" y2="238.75%">			<stop stop-color="#ffffff" stop-opacity="1" offset="0%"/>			<stop stop-color="#c8c8c8" stop-opacity="1" offset="100%"/>		</linearGradient>		<linearGradient id="gradient15" x1="60%" y1="-140%" x2="60%" y2="98.75%">			<stop stop-color="#ffffff" stop-opacity="1" offset="0%"/>			<stop stop-color="#c8c8c8" stop-opacity="1" offset="100%"/>		</linearGradient>		<linearGradient id="gradient16" x1="50%" y1="0%" x2="50%" y2="298.4375%">			<stop stop-color="#ffffff" stop-opacity="1" offset="0%"/>			<stop stop-color="#c8c8c8" stop-opacity="1" offset="100%"/>		</linearGradient>		<linearGradient id="gradient17" x1="50%" y1="0%" x2="50%" y2="238.75%">			<stop stop-color="#ffffff" stop-opacity="1" offset="0%"/>			<stop stop-color="#c8c8c8" stop-opacity="1" offset="100%"/>		</linearGradient>		<linearGradient id="gradient18" x1="50%" y1="-200%" x2="50%" y2="100%">			<stop stop-color="#ffffff" stop-opacity="1" offset="0%"/>			<stop stop-color="#c8c8c8" stop-opacity="1" offset="100%"/>		</linearGradient>		<linearGradient id="gradient19" x1="50%" y1="-200%" x2="50%" y2="110.9375%">			<stop stop-color="#ffffff" stop-opacity="1" offset="0%"/>			<stop stop-color="#c8c8c8" stop-opacity="1" offset="100%"/>		</linearGradient>		<linearGradient id="gradient20" x1="55%" y1="0%" x2="55%" y2="100%">			<stop stop-color="#ffffff" stop-opacity="1" offset="0%"/>			<stop stop-color="#c8c8c8" stop-opacity="1" offset="100%"/>		</linearGradient>		<linearGradient id="gradient21" x1="50%" y1="0%" x2="50%" y2="100%">			<stop stop-color="#ffffff" stop-opacity="1" offset="0%"/>			<stop stop-color="#c8c8c8" stop-opacity="1" offset="99.4444%"/>		</linearGradient>	</defs>	<g id="BG">	</g>	<g id="controls">		<path id="Line" d="M 98.5 7.5 L 109.5 7.5 " stroke="#ffffff" stroke-width="1" fill="none"/>		<path id="Line2" d="M 98.5 3.5 L 109.5 3.5 " stroke="#ffffff" stroke-width="1" fill="none"/>		<path id="Line3" d="M 98.5 11.5 L 109.5 11.5 " stroke="#ffffff" stroke-width="1" fill="none"/>		<path id="Ellipse" d="M 108 11.5 C 108 10.6716 108.4477 10 109 10 C 109.5523 10 110 10.6716 110 11.5 C 110 12.3284 109.5523 13 109 13 C 108.4477 13 108 12.3284 108 11.5 Z" fill="#ffffff"/>		<path id="Ellipse2" d="M 104 7.5 C 104 6.6716 104.4477 6 105 6 C 105.5523 6 106 6.6716 106 7.5 C 106 8.3284 105.5523 9 105 9 C 104.4477 9 104 8.3284 104 7.5 Z" fill="#ffffff"/>		<path id="Ellipse3" d="M 108 3.5 C 108 2.6716 108.4477 2 109 2 C 109.5523 2 110 2.6716 110 3.5 C 110 4.3284 109.5523 5 109 5 C 108.4477 5 108 4.3284 108 3.5 Z" fill="#ffffff"/>	</g>	<g id="backlight">		<g id="off">			<rect x="83" y="21" width="10" height="6" stroke="#ffffff" stroke-width="1" fill="#333333"/>		</g>		<g id="on">			<path id="Ellipse4" d="M 81 8 C 81 5.2385 84.134 3 88 3 C 91.866 3 95 5.2385 95 8 C 95 10.7615 91.866 13 88 13 C 84.134 13 81 10.7615 81 8 Z" fill="url(#gradient1)"/>			<rect x="83" y="5" width="10" height="6" stroke="#ffffff" stroke-width="1" fill="#333333"/>		</g>	</g>	<g id="loop">		<g id="on2">			<path d="M 73.795 4.205 C 75.2155 4.8785 76.2 6.3234 76.2 8 C 76.2 10.3196 74.3196 12.2 72 12.2 C 69.6804 12.2 67.8 10.3196 67.8 8 C 67.8 6.3234 68.7845 4.8785 70.205 4.205 L 68.875 2.875 C 67.1501 3.9289 66 5.8306 66 8 C 66 11.3138 68.6862 14 72 14 C 75.3138 14 78 11.3138 78 8 C 78 5.8306 76.8499 3.9289 75.125 2.875 L 73.795 4.205 Z" fill="url(#gradient2)"/>			<path d="M 71 2 L 66 2 L 71 7 L 71 2 Z" fill="url(#gradient3)"/>		</g>		<g id="off2">			<path d="M 73.795 20.205 C 75.2155 20.8785 76.2 22.3234 76.2 24 C 76.2 26.3196 74.3196 28.2 72 28.2 C 69.6804 28.2 67.8 26.3196 67.8 24 C 67.8 22.3234 68.7845 20.8785 70.205 20.205 L 68.875 18.875 C 67.1501 19.9289 66 21.8306 66 24 C 66 27.3138 68.6862 30 72 30 C 75.3138 30 78 27.3138 78 24 C 78 21.8306 76.8499 19.9289 75.125 18.875 L 73.795 20.205 Z" fill="#a8a8b7"/>			<path d="M 71 18 L 66 18 L 71 23 L 71 18 Z" fill="#a8a8b7"/>		</g>	</g>	<g id="cc">		<rect visibility="hidden" x="49" y="2" width="14" height="12" stroke="#b0b0b0" stroke-width="1" fill="none"/>		<text visibility="hidden" x="49" y="17" width="14" fill="#ffffff" style="font-size: 10px; color: #ffffff; font-family: Arial; text-align: center; "><tspan><![CDATA[cc]]></tspan></text>		<path d="M 55 7 C 50.2813 3.7813 50.063 12.9405 55 10 " stroke="#ffffff" stroke-width="1" fill="none"/>		<path d="M 60 7 C 55.2813 3.7813 55.063 12.9405 60 10 " stroke="#ffffff" stroke-width="1" fill="none"/>		<path d="M 50 3 L 62 3 L 62 13 L 50 13 L 50 3 ZM 49 2 L 49 14 L 63 14 L 63 2 L 49 2 Z" fill="url(#gradient4)"/>		<rect x="49" y="2" width="14" height="12" fill="none"/>	</g>	<g id="volume">		<g id="no%20sound">			<rect x="17" y="5" width="5" height="6" fill="url(#gradient5)"/>			<path d="M 21 5 L 25 2 L 25 14 L 21 11.0625 L 21 5 Z" fill="url(#gradient6)"/>		</g>		<g id="sound%20bars">			<rect x="17" y="21" width="5" height="6" fill="url(#gradient7)"/>			<path d="M 21 21 L 25 18 L 25 30 L 21 27.0625 L 21 21 Z" fill="url(#gradient8)"/>			<path d="M 27 18 C 27 18 30.0625 17.375 30 24 C 29.9375 30.625 27 30 27 30 " stroke="#ffffff" stroke-width="1" fill="none"/>			<path d="M 26 21.0079 C 26 21.0079 28.041 20.6962 27.9994 24 C 27.9577 27.3038 26 26.9921 26 26.9921 " stroke="#ffffff" stroke-width="1" fill="none"/>		</g>	</g>	<g id="play/pause">		<g id="play">			<path id="Polygon" d="M 14 8.5 L 3 14 L 3 3 L 14 8.5 Z" fill="url(#gradient9)"/>		</g>		<g id="pause">			<rect x="3" y="18" width="3" height="12" fill="url(#gradient10)"/>			<rect x="10" y="18" width="3" height="12" fill="url(#gradient11)"/>		</g>	</g>	<g id="fullscreen">		<g id="enter%201">			<path d="M 34 2 L 39 2 L 34 7 L 34 2 Z" fill="url(#gradient12)"/>			<path d="M 34 14 L 39 14 L 34 9 L 34 14 Z" fill="url(#gradient13)"/>			<path d="M 46 2 L 41 2 L 46 7 L 46 2 Z" fill="url(#gradient14)"/>			<path d="M 46 14 L 41 14 L 46 9 L 46 14 Z" fill="url(#gradient15)"/>		</g>		<g id="exit">			<path d="M 42 22 L 46 22 L 42 18 L 42 22 Z" fill="url(#gradient16)"/>			<path d="M 38 22 L 38 18 L 34 22 L 38 22 Z" fill="url(#gradient17)"/>			<path d="M 38 26 L 34 26 L 38 30 L 38 26 Z" fill="url(#gradient18)"/>			<path d="M 42 26 L 42 30 L 46 26 L 42 26 Z" fill="url(#gradient19)"/>		</g>	</g>	<g id="stop">		<rect x="115" y="3" width="10" height="10" fill="url(#gradient20)"/>	</g>	<g id="chooser">		<path d="M 135.2346 6.1522 C 136.2551 5.7295 137.4251 6.2141 137.8478 7.2346 C 138.2704 8.2551 137.7859 9.425 136.7654 9.8478 C 135.7449 10.2705 134.5749 9.7859 134.1522 8.7654 C 133.7295 7.7449 134.2141 6.5749 135.2346 6.1522 ZM 133.2735 1.4176 L 136 4.0054 L 138.7265 1.4176 L 138.8246 5.1754 L 142.5824 5.2735 L 139.9946 8 L 142.5824 10.7265 L 138.8246 10.8246 L 138.7265 14.5824 L 136 11.9946 L 133.2735 14.5824 L 133.1754 10.8246 L 129.4176 10.7265 L 132.0054 8 L 129.4176 5.2735 L 133.1754 5.1754 L 133.2735 1.4176 Z" fill="url(#gradient21)"/>	</g></svg>

<?xml version="1.0" encoding="utf-8"?>
<!-- Generator: Adobe Illustrator 19.1.0, SVG Export Plug-In . SVG Version: 6.00 Build 0)  -->
<svg version="1.1" id="controls.fw-Page_x25_201" xmlns="http://www.w3.org/2000/svg" xmlns:xlink="http://www.w3.org/1999/xlink"
	 x="0px" y="0px" viewBox="0 0 144 32" style="enable-background:new 0 0 144 32;" width="144" height="32" xml:space="preserve">
<style type="text/css">
	.st0{fill:none;enable-background:new    ;}
	.st1{stroke:#FFFFFF;}
	.st2{display:none;stroke:#B0B0B0;}
	.st3{enable-background:new    ;}
	.st4{opacity:0.4;}
	.st5{opacity:0.4;enable-background:new    ;}
	path, rect, text {
		fill: rgba(204, 102, 0, 1); /* TERTIARY_COLOR */
	}
</style>
<path class="st0" d="M0,0"/>
<g id="BG">
</g>
<g id="controls">
	<path id="Line" class="st1" d="M98.5,7.5h11"/>
	<path id="Line2" class="st1" d="M98.5,3.5h11"/>
	<path id="Line3" class="st1" d="M98.5,11.5h11"/>
	<path id="Ellipse" d="M108,11.5c0-0.8,0.4-1.5,1-1.5s1,0.7,1,1.5s-0.4,1.5-1,1.5S108,12.3,108,11.5z"/>
	<path id="Ellipse2" d="M104,7.5c0-0.8,0.4-1.5,1-1.5s1,0.7,1,1.5S105.6,9,105,9S104,8.3,104,7.5z"/>
	<path id="Ellipse3" d="M108,3.5c0-0.8,0.4-1.5,1-1.5s1,0.7,1,1.5S109.6,5,109,5S108,4.3,108,3.5z"/>
</g>
<g id="backlight">
	<g id="off">
		<rect x="83" y="21" class="st1" width="10" height="6"/>
	</g>
	<g id="on">
		<path id="Ellipse4" d="M81,8c0-2.8,3.1-5,7-5s7,2.2,7,5s-3.1,5-7,5S81,10.8,81,8z"/>
		<rect x="83" y="5" class="st1" width="10" height="6"/>
	</g>
</g>
<g id="loop">
	<g id="on2">
		<path d="M73.8,4.2c1.4,0.7,2.4,2.1,2.4,3.8c0,2.3-1.9,4.2-4.2,4.2s-4.2-1.9-4.2-4.2c0-1.7,1-3.1,2.4-3.8l-1.3-1.3
			C67.2,3.9,66,5.8,66,8c0,3.3,2.7,6,6,6s6-2.7,6-6c0-2.2-1.2-4.1-2.9-5.1L73.8,4.2z"/>
		<path d="M71,2h-5l5,5V2z"/>
	</g>
	<g id="off2">
		<path d="M73.8,20.2c1.4,0.7,2.4,2.1,2.4,3.8c0,2.3-1.9,4.2-4.2,4.2s-4.2-1.9-4.2-4.2c0-1.7,1-3.1,2.4-3.8l-1.3-1.3
			C67.2,20,66,21.9,66,24c0,3.3,2.7,6,6,6s6-2.7,6-6c0-2.2-1.2-4.1-2.9-5.1L73.8,20.2z"/>
		<path d="M71,18h-5l5,5V18z"/>
	</g>
</g>
<g id="cc">
	<rect x="49" y="2" class="st2" width="14" height="12"/>
	<path d="M50,3h12v10H50V3z M49,2v12h14V2H49z"/>
</g>
<g id="volume">
	<g id="no_x25_20sound">
		<rect x="17" y="5" width="5" height="6"/>
		<path d="M21,5l4-3v12l-4-2.9V5z"/>
	</g>
	<g id="sound_x25_20bars">
		<rect x="17" y="21" width="5" height="6"/>
		<path d="M21,21l4-3v12l-4-2.9V21z"/>
		<path class="st1" d="M27,18c0,0,3.1-0.6,3,6s-3,6-3,6"/>
		<path class="st1" d="M26,21c0,0,2-0.3,2,3s-2,3-2,3"/>
	</g>
</g>
<g id="play_x2F_pause">
	<g id="play">
		<path id="Polygon" d="M14,8.5L3,14V3L14,8.5z"/>
	</g>
	<g id="pause">
		<rect x="3" y="18" width="3" height="12"/>
		<rect x="10" y="18" width="3" height="12"/>
	</g>
</g>
<g id="fullscreen">
	<g id="enter_x25_201">
		<path d="M34,2h5l-5,5V2z"/>
		<path d="M34,14h5l-5-5V14z"/>
		<path d="M46,2h-5l5,5V2z"/>
		<path d="M46,14h-5l5-5V14z"/>
	</g>
	<g id="exit">
		<path d="M42,22h4l-4-4V22z"/>
		<path d="M38,22v-4l-4,4H38z"/>
		<path d="M38,26h-4l4,4V26z"/>
		<path d="M42,26v4l4-4H42z"/>
	</g>
</g>
<g id="stop">
	<rect x="115" y="3" width="10" height="10"/>
</g>
<g id="chooser">
	<path d="M135.2,6.2c1-0.4,2.2,0.1,2.6,1.1c0.4,1-0.1,2.2-1.1,2.6s-2.2-0.1-2.6-1.1S134.2,6.6,135.2,6.2z M133.3,1.4L136,4l2.7-2.6
		l0.1,3.8l3.8,0.1L140,8l2.6,2.7l-3.8,0.1l-0.1,3.8L136,12l-2.7,2.6l-0.1-3.8l-3.8-0.1L132,8l-2.6-2.7l3.8-0.1L133.3,1.4z"/>
</g>
<path class="st3" d="M0,0"/>
<g class="st3">
	<path d="M55.7,6.9l-1.4,0.2c0-0.3-0.1-0.5-0.3-0.6s-0.4-0.2-0.6-0.2c-0.3,0-0.6,0.1-0.8,0.4c-0.2,0.2-0.3,0.6-0.3,1.2
		c0,0.6,0.1,1,0.3,1.3s0.5,0.4,0.8,0.4c0.3,0,0.5-0.1,0.6-0.2c0.2-0.1,0.3-0.4,0.4-0.8l1.3,0.2c-0.1,0.6-0.4,1.1-0.8,1.4
		s-0.9,0.5-1.6,0.5c-0.8,0-1.4-0.2-1.8-0.7s-0.7-1.1-0.7-2c0-0.9,0.2-1.5,0.7-2c0.5-0.5,1.1-0.7,1.8-0.7c0.6,0,1.1,0.1,1.5,0.4
		C55.3,6,55.6,6.4,55.7,6.9z"/>
	<path d="M61.3,6.9l-1.4,0.2c0-0.3-0.1-0.5-0.3-0.6S59.3,6.4,59,6.4c-0.3,0-0.6,0.1-0.8,0.4c-0.2,0.2-0.3,0.6-0.3,1.2
		c0,0.6,0.1,1,0.3,1.3s0.5,0.4,0.8,0.4c0.3,0,0.5-0.1,0.6-0.2C59.8,9.2,60,9,60,8.6l1.3,0.2c-0.1,0.6-0.4,1.1-0.8,1.4
		s-0.9,0.5-1.6,0.5c-0.8,0-1.4-0.2-1.8-0.7s-0.7-1.1-0.7-2c0-0.9,0.2-1.5,0.7-2c0.5-0.5,1.1-0.7,1.8-0.7c0.6,0,1.1,0.1,1.5,0.4
		C60.9,6,61.1,6.4,61.3,6.9z"/>
</g>
<g id="cc_1_" class="st4">
	<rect x="49" y="18" class="st2" width="14" height="12"/>
	<path d="M50,19h12v10H50V19z M49,18v12h14V18H49z"/>
</g>
<g class="st5">
	<path d="M55.7,22.9l-1.4,0.2c0-0.3-0.1-0.5-0.3-0.6s-0.4-0.2-0.6-0.2c-0.3,0-0.6,0.1-0.8,0.4c-0.2,0.2-0.3,0.6-0.3,1.2
		c0,0.6,0.1,1,0.3,1.3s0.5,0.4,0.8,0.4c0.3,0,0.5-0.1,0.6-0.2c0.2-0.1,0.3-0.4,0.4-0.8l1.3,0.2c-0.1,0.6-0.4,1.1-0.8,1.4
		s-0.9,0.5-1.6,0.5c-0.8,0-1.4-0.2-1.8-0.7s-0.7-1.1-0.7-2c0-0.9,0.2-1.5,0.7-2c0.5-0.5,1.1-0.7,1.8-0.7c0.6,0,1.1,0.1,1.5,0.4
		C55.3,22,55.6,22.4,55.7,22.9z"/>
	<path d="M61.3,22.9l-1.4,0.2c0-0.3-0.1-0.5-0.3-0.6s-0.4-0.2-0.6-0.2c-0.3,0-0.6,0.1-0.8,0.4c-0.2,0.2-0.3,0.6-0.3,1.2
		c0,0.6,0.1,1,0.3,1.3s0.5,0.4,0.8,0.4c0.3,0,0.5-0.1,0.6-0.2c0.2-0.1,0.3-0.4,0.4-0.8l1.3,0.2c-0.1,0.6-0.4,1.1-0.8,1.4
		s-0.9,0.5-1.6,0.5c-0.8,0-1.4-0.2-1.8-0.7s-0.7-1.1-0.7-2c0-0.9,0.2-1.5,0.7-2c0.5-0.5,1.1-0.7,1.8-0.7c0.6,0,1.1,0.1,1.5,0.4
		C60.9,22,61.1,22.4,61.3,22.9z"/>
</g>
</svg>
